X: 1
T: Noël Nouvelet
C: Trad
R: Carol
L: 1/8
M: 4/4
K: Ador
Z: ABC transcription by Verge Roller
r: 16
|: "Am" A2 e2 f2 d2 | "Am" e4 c4 | "G" d2 de c2 B2 | "Am" A8 :|
"Am" c4 B2 A2 | "G" B6 E2 | "Am" c2 c2 B2 A2 | "G" B8 |
"Am" A2 e2 f2 d2 | "Am" e4 c4 | "G" d2 de c2 B2 | "Am" A8 |]
